X: 11
T: Golden Keyboard, The
C: Martin Mulhaire
Z: Ethfu56
S: https://thesession.org/tunes/36#setting49449
R: reel
M: 4/4
L: 1/8
K: Edor
|:BGEF GFGA|BBgB fBed|BGEF GBAG|FDAD BDAF|
EB,EF GFGA|B2gB fBec|dcde dBAF|DFAF FEE2:|
|:Bee2 Bee2|Beef edBc|dAA2 fAA2|dcde dBAF|
EB,EF GFGA|B2gB fBec|d2de dBAF|DFAF FEE2:|

